img/icons/Phone.svg

<svg width="20" height="20" viewBox="0 0 20 20" fill="none" xmlns="http://www.w3.org/2000/svg">
<path d="M2.5 4.16667C2.5 3.24619 3.24619 2.5 4.16667 2.5H6.89937C7.25806 2.5 7.57651 2.72953 7.68994 3.06981L8.93811 6.81434C9.06926 7.20777 8.89115 7.63776 8.52022 7.82322L6.63917 8.76375C7.55771 10.801 9.19898 12.4423 11.2363 13.3608L12.1768 11.4798C12.3622 11.1088 12.7922 10.9307 13.1857 11.0619L16.9302 12.3101C17.2705 12.4235 17.5 12.7419 17.5 13.1006V15.8333C17.5 16.7538 16.7538 17.5 15.8333 17.5H15C8.09644 17.5 2.5 11.9036 2.5 5V4.16667Z" stroke="#00226C" stroke-width="2" stroke-linecap="round" stroke-linejoin="round"/>
</svg>

<svg width="20" height="20" fill="none" xmlns="http://www.w3.org/2000/svg"><path d="M2.5 4.167c0-.92.746-1.667 1.667-1.667h2.732c.36 0 .678.23.79.57l1.25 3.744a.833.833 0 0 1-.419 1.01l-1.88.94a9.201 9.201 0 0 0 4.596 4.597l.94-1.881a.833.833 0 0 1 1.01-.418l3.744 1.248c.34.114.57.432.57.79v2.733c0 .92-.746 1.667-1.667 1.667H15C8.096 17.5 2.5 11.904 2.5 5v-.833Z" stroke="#00226C" stroke-width="2" stroke-linecap="round" stroke-linejoin="round"/></svg>
